packages/icons/svg/Outline/undo.svg

<svg fill="none" height="24" viewBox="0 0 24 24" width="24" xmlns="http://www.w3.org/2000/svg"><path clip-rule="evenodd" d="m10.4541 11.5001c3.563 0 6.777 1.634 8.81 4.259-.935-3.869-4.53-6.75902-8.81-6.75902-.55298 0-.99998-.447-.99998-1v-1.923l-4.824 4.17402 4.824 4.212v-1.963c0-.553.447-1 .99998-1zm9.767 9.4999c-.461 0-.863-.315-.972-.763-.89-3.649-4.021-6.285-7.795-6.684v1.121c0 .706-.419 1.335-1.093 1.64-.73098.333-1.58398.213-2.17698-.304l-5.066-4.424c-.393-.344-.618-.831-.618-1.336 0-.50502.225-.99202.618-1.33602l5.066-4.424c.593-.517 1.446-.637 2.17698-.304.674.305 1.093.934 1.093 1.64v1.218c5.624.493 10.046 5.10602 10.046 10.70602 0 .81-.104 1.646-.308 2.486-.108.449-.509.764-.971.764z" fill="#6b7280" fill-rule="evenodd"/></svg>

<svg width="24" height="24" viewBox="0 0 24 24" fill="none" xmlns="http://www.w3.org/2000/svg">
<g id="Icon/Outline/undo">
<path id="Mask" fill-rule="evenodd" clip-rule="evenodd" d="M10.4541 11.5C14.0171 11.5 17.2311 13.134 19.2641 15.759C18.3291 11.89 14.7341 9 10.4541 9C9.90112 9 9.45412 8.553 9.45412 8V6.077L4.63012 10.251L9.45412 14.463V12.5C9.45412 11.947 9.90112 11.5 10.4541 11.5ZM20.2211 21C19.7601 21 19.3581 20.685 19.2491 20.237C18.3591 16.588 15.2281 13.952 11.4541 13.553V14.674C11.4541 15.38 11.0351 16.009 10.3611 16.314C9.63012 16.647 8.77712 16.527 8.18412 16.01L3.11812 11.586C2.72512 11.242 2.50012 10.755 2.50012 10.25C2.50012 9.745 2.72512 9.258 3.11812 8.914L8.18412 4.49C8.77712 3.973 9.63012 3.853 10.3611 4.186C11.0351 4.491 11.4541 5.12 11.4541 5.826V7.044C17.0781 7.537 21.5001 12.15 21.5001 17.75C21.5001 18.56 21.3961 19.396 21.1921 20.236C21.0841 20.685 20.6831 21 20.2211 21Z" fill="#000000"/>
</g>
</svg>
